X: 13
T: Acemaşîrân Aranağme (Senginsemâî)
C: ?
O: Turkey
F: http://compmusic.upf.edu/node/140
N: acemasiran--aranagme--senginsemai--1--
N: makam= acemasiran
N: form= aranagme
N: usul= senginsemai = 6/4
M: 6/4
L: 1/16
K: C _B   
Q: 1/4=66
%%MIDI tuningsystem comma53
c4 f4 e2f2 g2{a}gf {g}f8  | f3e d2c2 .c2(3dcB .A2(3BAG F6z2  | 
w:  ARANAĞME  |   | 
F4 G2A2 Bcde fgac' b6a2  | (3.d'2.c'2.b2 (3.a2.g2.f2 (3.e2.d2.c2 efge f8  | 
w:   |   | 
.g4 (3_e2d2c2 .f4 {f}(3d2c2B2 {e}d4 (3B2A2G2  | \
w:   | 
{a}(3g2f2_e2 {e}(3d2c2B2 {B}(3A2G2F2 EFGE F6z2  | 
w:   | 
c4 f4 e2f2 g2{a}gf {g}f8  | f3e d2c2 .c2(3dcB .A2(3BAG F6z2  | 
w:  ARANAĞME  |   | 
F4 G2A2 Bcde fgac' b6a2  | (3.d'2.c'2.b2 (3.a2.g2.f2 (3.e2.d2.c2 efge f8  | 
w:   |   | 
.g4 (3_e2d2c2 .f4 {f}(3d2c2B2 {e}d4 (3B2A2G2  | \
w:   | 
{a}(3g2f2_e2 {e}(3d2c2B2 {B}(3A2G2F2 EFGE F6z2  | 
w:   | 
|


